X:1
T:Seikilos epitaph
C:Hellenistic Ionic hymn
C:Greek tombstone
O:Tralles [near Aydin, Turkey], ~ 1st c CE
S:https://en.wikipedia.org/wiki/Seikilos_epitaph
Z:transcribed into ABC by Eric Conrad
M:6/8
L:1/8
R:jig
K:Amix % missing VI (i.e. F#)
Ae2e3 | (cde) d3 | c2d e(dc) | BA2 (BG2) |
w:?-??? ??? ???__ \-\ ??? ??-??? ?-???_ ?? ??-???_
w:While you live, shine,___ Have no grief__ at all.__
Ace d(cd) | cA2 (BA2) | AcB dec | AA2 (AGE) || [D3A3] [A3E3A,3] |]
w:???? ?-??-??? ??_ \-\ ?? ?? ???_ ?? ??-??? ? ???-??? ?-???-???__ ~ ~
w:Life ex-ists on-ly for a short while,_ And__ time de_ \-\ mands an end.__ [A-men.]

